assets/Luggage/Flat/luggage_flat.svg

<svg width="32" height="32" viewBox="0 0 32 32" fill="none" xmlns="http://www.w3.org/2000/svg">
<path fill-rule="evenodd" clip-rule="evenodd" d="M14 3H13V5.41414V5.58586V6H13.4505H14H18H18.5491H19V5.39699C19 5.39675 19 5.39651 19 5.39627V3H18V5H14V3Z" fill="#636363"/>
<path fill-rule="evenodd" clip-rule="evenodd" d="M14.19 1.5C13.5276 1.5 13 2.0444 13 2.69932V3.5H14V2.69932C14 2.58398 14.0924 2.5 14.19 2.5H17.81C17.9076 2.5 18 2.58398 18 2.69932V3.5H19V2.69932C19 2.0444 18.4724 1.5 17.81 1.5H14.19ZM12 30.1C11.45 30.1 11 29.65 11 29.1V28H13V29.1C13 29.65 12.56 30.1 12 30.1ZM20 30.1C19.45 30.1 19 29.65 19 29.1V28H21V29.1C21 29.65 20.56 30.1 20 30.1Z" fill="#212121"/>
<path d="M21.72 28.47H10.28C8.46898 28.47 7 27.0106 7 25.2114V8.72855C7 6.92934 8.46898 5.46997 10.28 5.46997H21.72C23.531 5.46997 25 6.92934 25 8.72855V25.2014C25 27.0106 23.531 28.47 21.72 28.47Z" fill="#00A6ED"/>
<path fill-rule="evenodd" clip-rule="evenodd" d="M11 27C10.45 27 10 26.55 10 26V9C10 8.45 10.45 8 11 8C11.55 8 12 8.45 12 9V26C12 26.55 11.56 27 11 27ZM16 27C15.45 27 15 26.55 15 26V9C15 8.45 15.45 8 16 8C16.55 8 17 8.45 17 9V26C17 26.55 16.56 27 16 27ZM20 26C20 26.55 20.45 27 21 27C21.56 27 22 26.55 22 26V9C22 8.45 21.55 8 21 8C20.45 8 20 8.45 20 9V26Z" fill="#26EAFC"/>
<path d="M20.81 10.77L19.07 12.51C18.83 12.75 18.45 12.75 18.22 12.51L14.75 9.04002C14.51 8.80002 14.51 8.42002 14.75 8.19002L16.49 6.45002C16.73 6.21002 17.11 6.21002 17.34 6.45002L20.81 9.92002C21.04 10.15 21.04 10.53 20.81 10.77Z" fill="#F4F4F4"/>
</svg>

<svg xmlns="http://www.w3.org/2000/svg" width="32" height="32" fill="none"><path fill="#636363" fill-rule="evenodd" d="M14 3h-1V6h6V3h-1v2h-4V3Z" clip-rule="evenodd"/><path fill="#212121" fill-rule="evenodd" d="M14.19 1.5c-.662 0-1.19.544-1.19 1.2v.8h1v-.8c0-.116.092-.2.19-.2h3.62c.098 0 .19.084.19.2v.8h1v-.8c0-.656-.528-1.2-1.19-1.2h-3.62ZM12 30.1c-.55 0-1-.45-1-1V28h2v1.1c0 .55-.44 1-1 1Zm8 0c-.55 0-1-.45-1-1V28h2v1.1c0 .55-.44 1-1 1Z" clip-rule="evenodd"/><path fill="#00A6ED" d="M21.72 28.47H10.28C8.469 28.47 7 27.01 7 25.211V8.73c0-1.8 1.469-3.259 3.28-3.259h11.44c1.811 0 3.28 1.46 3.28 3.259V25.2a3.272 3.272 0 0 1-3.28 3.269Z"/><path fill="#26EAFC" fill-rule="evenodd" d="M11 27c-.55 0-1-.45-1-1V9c0-.55.45-1 1-1s1 .45 1 1v17c0 .55-.44 1-1 1Zm5 0c-.55 0-1-.45-1-1V9c0-.55.45-1 1-1s1 .45 1 1v17c0 .55-.44 1-1 1Zm4-1c0 .55.45 1 1 1 .56 0 1-.45 1-1V9c0-.55-.45-1-1-1s-1 .45-1 1v17Z" clip-rule="evenodd"/><path fill="#F4F4F4" d="m20.81 10.77-1.74 1.74c-.24.24-.62.24-.85 0l-3.47-3.47a.592.592 0 0 1 0-.85l1.74-1.74c.24-.24.62-.24.85 0l3.47 3.47c.23.23.23.61 0 .85Z"/></svg>
